X: 1
T:Fiona Blakey's Reel
M:4/4
L:1/8
Q:200
C:Stephen P McNally
S: 1997
K:A
|:ea (3aaa edcA|BcdB ecfd|ea (3aaa edcA|BcdB cA (3AAA 2:||
cA (3AAA fAeA|BcdB ecfd|cA (3AAA fAeA|BcdB cA (3AAA|
cA (3AAA 2fAeA|BcdB ecfd|cAdB ecfd|efge aA (3AAA||
